X:1
T:New Ulm, 87.87.87
T:New Ulm, 87.87.87
T:Fritz Reuter, 1910
T:Public Domain Courtesy of the Cyber Hymnal™
C:Fritz Reuter, 1910
Z:Public Domain
Z:Courtesy of the Cyber Hymnal™
%%score ( 1 2 ) ( 3 4 )
L:1/8
Q:1/4=115
M:4/4
K:G
V:1 treble 
V:2 treble 
V:3 bass 
V:4 bass 
V:1
 [DB]2 [DG]2 [CE]2 [B,E]2 | [EA]2 [DG]2 [DG]2 [DF]2 | [B,G]2 (AB) [Ec]2 [DB]2 | [Dd]2 [DB]2 [DA]4 | %4
 [DB]2 [^DA]2 [EG]2 [EB]2 | [EA]2 [EG]2 [DG]2 [DF]2 | E2 [^CB]2 [DA]2 (FD) | [DF]2 [^CE]2 D4 | %8
 [Dd]2 [Ed]2 [Ed]2 [Ec]2 | [Cc]2 [Dc]2 [Dc]2 [DB]2 | [EA]2 [DG]2 [DF]2 [B,G]2 | %11
 [GB]2 [FA]2 [DG]4 |] %12
V:2
 x8 | x8 | x2 D2 x4 | x8 | x8 | x8 | E2 x2 D2 x2 | x4 D4 | x8 | x8 | x8 | x8 |] %12
V:3
 [G,,G,]2 [B,,G,]2 [C,G,]2 [E,G,]2 | [A,,C]2 [B,,B,]2 [D,A,]2 [D,A,]2 | %2
 [E,G,]2 [D,F,]2 [C,G,]2 G,2 | [F,A,]2 G,2 [D,F,]4 | [B,,F,]2 [B,,B,]2 [E,B,]2 [G,,B,]2 | %5
 [A,,^C]2 [^C,B,]2 [D,A,]2 [D,A,]2 | [G,B,]2 [E,G,]2 [F,A,]2 (A,F,) | [A,,A,]2 [A,,A,]2 [D,F,]4 | %8
 [B,,F,]2 [E,^G,]2 [A,,A,]2 [C,A,]2 | [E,G,]2 [F,A,]2 G,2 [G,,G,]2 | %10
 [A,,C]2 [B,,B,]2 [D,A,]2 [E,G,]2 | [B,,D]2 [D,D]2 [G,B,]4 |] %12
V:4
 x8 | x8 | x6 G,2 | x2 G,2 x4 | x8 | x8 | x6 D,2 | x8 | x8 | x4 G,2 x2 | x8 | x8 |] %12

